X:1
T:Take the Life-Boat
T:William James Kirkpatrick
T:Take the Life-Boat
T:Public Domain
T:Public Domain
T:Public Domain
C:William James Kirkpatrick
Z:Public Domain
%%score ( 1 2 ) ( 3 4 )
L:1/8
M:4/4
K:G
V:1 treble 
V:2 treble 
V:3 bass 
V:4 bass 
V:1
 [DB]3 [^C^A] [DB][B,D][=CE][Ec] | [DB]4 [B,G]4 | [CA]3 [B,^G] [CA][CD] [DB]>[CA] | [B,G]6 z2 | %4
w: 1.~Are you wrecked up- on life’s|o- cean?|Loud the waves a- bout you|roar,|
w: 2.~Lin- ger not for earth- ly|trea- sures,|Yon- der lies the land of|gold;|
w: 3.~Pre- cious souls, like you, have|lin- gered,|“Time e- nough,” they gai- ly|said;|
w: 4.~Take the life- boat, you are|sink- ing,|Do not wait a mo- ment|more;|
 [DB]3 [^C^A] [DB][B,D][=CE][Ec] | [Ec]4 [DB]4 | [FA]3 [FA] [G^c][Gc][GB][GA] | [Fd]6 || %8
w: Still there’s hope, you need not|per- ish,|You may reach the heav’n- ly|shore.|
w: Friends and loved ones there are|wait- ing,|There are joys for you un-|told.|
w: Ere the mor- row they had|per- ished,|They are num- bered with the|dead.|
w: This may be your fi- nal|of- fer,|Hast- en now for yon- der|shore.|
"^Refrain" z2 | [GB]>[GB] [GB]2 [GB]2 z2 | [Fc]>[Fc] [Fc]2 [Fc]2 (3(cd)[Fe] | [Gd]>[Gd] [GB]>[GB] | %12
w: ||||
w: |Take the life- boat,|take the life- boat, See, * the|ior hold- ing out|
w: ||||
w: ||||
 [Gd]>[GB] [DA]>[DG] | (F2 G2 [Ad]2) z2 | [GB]>[GB] [GB]2 [GB]2 z2 | %15
w: |||
w: a help- ing hand.|Wait * *|long- er, take the|
w: |||
w: |||
 [Ec]>[Ec] [Ec]2 [Ec]2 (3(GF)[=A,E] | [B,D]>[B,D] [DG]>[DG] [GB]>[FA] [Fc]>[DF] | [DG]6 z2 |] %18
w: |||
w: life- boat, Start to- day * for|en’s bright and hap- py land. * *||
w: |||
w: |||
V:2
 x8 | x8 | x8 | x8 | x8 | x8 | x8 | x6 || x2 | x8 | x6 F2 | x4 | x4 | A4 x4 | x8 | x6 ^A,2 | x8 | %17
w: |||||||||||||||||
w: ||||||||||Sav-|||no||Heav-||
 x8 |] %18
w: |
w: |
V:3
 (G,,G,D,)G, G,,G,C,G, | (G,,G,D,G,) (G,,G,D,G,) | (D,A,F,)A, D,A,F,A, | (G,,G,D,G, G,,2) z2 | %4
w: ~ * * ~ ~ ~ ~ ~|~ * * * ~ * * *|~ * * ~ ~ ~ ~ ~|~ * * * *|
 (G,,G,D,)G, G,,G,C,G, | (G,,G,E,G,) (G,,G,D,G,) | (D,A,F,)A, A,,A,E,A, | [D,A,]6 || (3(D,E,)F, | %9
w: ~ * * ~ ~ ~ ~ ~|~ * * * ~ * * *|~ * * ~ ~ ~ ~ ~|~|Take * the|
 (D>D) (D2 D2) (3(CB,)A, | (D>D) (A,2 A,2) (3(A,B,)[CD] | [B,D]>[B,D] [G,D]>[G,D] | %12
w: life- * boat, * take * the|~ * ~ * ~ * ~|~ ~ ~ ~|
 [B,D]>[G,D] [F,C]>[G,B,] | ([D,D]2 [E,^C]2 [F,=C]2) (3(D,E,)F, | (D>D) (D2 D2) (3(B,,C,)D, | %15
w: Wait no long- er,|take * * the * life-|boat, * * * * * *|
 (G,>G,) (G,2 G,2) (3:2:2[^C,G,]2 [C,G,] | [D,G,]>[D,G,] [D,B,]>[D,B,] [D,D]>[D,C] [D,A,]>[D,C] | %17
w: ||
 [G,,B,]6 z2 |] %18
w: |
V:4
 x8 | x8 | x8 | x8 | x8 | x8 | x8 | x6 || x2 | G,2 G,4 x2 | A,2 D,4 D2 | x4 | x4 | x8 | %14
w: |||||||||life- boat,|~ ~ ~||||
 G,2 G,4 x2 | E,2 ^C,4 x2 | x8 | x8 |] %18
w: ||||

